src/topics/icons/pipefy.svg

<svg height="140" preserveAspectRatio="xMidYMid" viewBox="0 0 256 140" width="256" xmlns="http://www.w3.org/2000/svg"><path d="m151.704857 35.4559568c-9.194734 9.2340282-14.255768 21.5015329-14.255768 34.5470535 0 13.0612382 5.061034 25.3287428 14.255768 34.5549127 9.194734 9.226169 21.422945 14.30292 34.421314 14.30292 13.014085 0 25.242296-5.076751 34.437031-14.30292 9.194734-9.2261699 14.263626-21.5015333 14.263626-34.5549127 0-13.0455206-5.061033-25.3051666-14.255768-34.5470535-9.202593-9.2261694-21.430804-14.3029202-34.444889-14.3029202-12.998369 0-25.22658 5.0767508-34.421314 14.3029202z" fill="#029aff"/><path d="m69.7606032 0c-38.4693685 0-69.7606032 31.4017987-69.7606032 70.0037697 0 38.5868923 31.2912347 69.9962303 69.7606032 69.9962303h116.4712538c18.63902 0 36.162111-7.268027 49.33459-20.492218 13.180019-13.216652 20.433553-30.7986431 20.433553-49.5040123 0-18.6978297-7.253534-36.2647423-20.433553-49.4889331-13.180019-13.21665145-30.68803-20.5148366-49.33459-20.5148366zm83.4382658 103.139641c-8.821866-8.8437715-13.677663-20.612849-13.677663-33.1434107 0-12.5154828 4.855797-24.2770209 13.677663-33.1434111 8.821866-8.8513113 20.554194-13.7217944 33.025448-13.7217944 12.486333 0 24.226201 4.8704831 33.048068 13.7217944 8.821866 8.8588508 13.677662 20.6279283 13.677662 33.1434111s-4.863336 24.2996392-13.685203 33.1509507c-8.821866 8.851311-20.569274 13.721794-33.048067 13.721794-12.471254 0-24.203582-4.870483-33.025448-13.721794zm-130.1564562-33.1283318c0-25.8452259 20.9613572-46.8802844 46.7181904-46.8802844h64.7917058c-23.9623 26.5614734-23.9623 67.176477 0 93.7454902h-64.7917058c-25.7568332 0-46.7181904-21.0350588-46.7181904-46.8727453z" fill="#303030"/></svg>

<?xml version="1.0" encoding="UTF-8" standalone="no"?>
<svg width="256px" height="140px" viewBox="0 0 256 140" version="1.1" xmlns="http://www.w3.org/2000/svg" xmlns:xlink="http://www.w3.org/1999/xlink" preserveAspectRatio="xMidYMid">
	<g>
		<path d="M151.704857,35.4559568 C142.510123,44.689985 137.449089,56.9574897 137.449089,70.0030103 C137.449089,83.0642485 142.510123,95.3317531 151.704857,104.557923 C160.899591,113.784092 173.127802,118.860843 186.126171,118.860843 C199.140256,118.860843 211.368467,113.784092 220.563202,104.557923 C229.757936,95.3317531 234.826828,83.0563897 234.826828,70.0030103 C234.826828,56.9574897 229.765795,44.6978437 220.57106,35.4559568 C211.368467,26.2297874 199.140256,21.1530366 186.126171,21.1530366 C173.127802,21.1530366 160.899591,26.2297874 151.704857,35.4559568 L151.704857,35.4559568 Z" fill="#029AFF"></path>
		<path d="M69.7606032,0 C31.2912347,0 0,31.4017987 0,70.0037697 C0,108.590662 31.2912347,140 69.7606032,140 L186.231857,140 C204.870877,140 222.393968,132.731973 235.566447,119.507782 C248.746466,106.29113 256,88.7091389 256,70.0037697 C256,51.30594 248.746466,33.7390274 235.566447,20.5148366 C222.386428,7.29818515 204.878417,0 186.231857,0 L69.7606032,0 L69.7606032,0 Z M153.198869,103.139641 C144.377003,94.2958695 139.521206,82.526792 139.521206,69.9962303 C139.521206,57.4807475 144.377003,45.7192094 153.198869,36.8528192 C162.020735,28.0015079 173.753063,23.1310248 186.224317,23.1310248 C198.71065,23.1310248 210.450518,28.0015079 219.272385,36.8528192 C228.094251,45.71167 232.950047,57.4807475 232.950047,69.9962303 C232.950047,82.5117131 228.086711,94.2958695 219.264844,103.147181 C210.442978,111.998492 198.69557,116.868975 186.216777,116.868975 C173.745523,116.868975 162.013195,111.998492 153.191329,103.147181 L153.198869,103.139641 Z M23.0424128,70.0113092 C23.0424128,44.1660833 44.00377,23.1310248 69.7606032,23.1310248 L134.552309,23.1310248 C110.590009,49.6924982 110.590009,90.3075018 134.552309,116.876515 L69.7606032,116.876515 C44.00377,116.876515 23.0424128,95.8414562 23.0424128,70.0037697 L23.0424128,70.0113092 Z" fill="#303030"></path>
	</g>
</svg>
